X:35
T:The Addison Tree
R:jig
C:Paul S. Cranford
O:Cape Breton Island
S:http://www.cranfordpub.com
D:currently unrecorded
B:currently unpublished in book form
Z:psc
H:                                                        copyrights Cranford Publications, SOCAN
L:1/8
Q:300
M:6/8
K:D
add fed|cec B2 A|add fed|gab a2 b|
add fed|cec B2 A|adf edc|[1d3  d2 f:|[2d2 A dcB||
|:Aaa Aba|fed BGB|Aaa Aba|fed edB|
Aaa Aba|fed BGB|Aaf edc|[1d2 A dcB:|[2  d2 A dfb|]
